X: 8530
T: Crehan's Kitchen
R: reel
M: 4/4
K: Dmajor
|:D3F AF3|AFBF AFEF|DFDF AF3|BFAF EDFE:|
fd3 edBc|dedB ABde|fd3 edBc|dBAF EFD2|
fd3 edBc|dedB ABde|f3d dBAB|dBAF EDFE|

